X:1
T:Grosvenor (Wesley), 78.78
T:Samuel Sebastian Wesley, 1872
T:Grosvenor (Wesley), 78.78
T:Public Domain
C:Samuel Sebastian Wesley, 1872
Z:Public Domain
%%score ( 1 2 ) ( 3 4 )
L:1/8
M:4/4
K:D
V:1 treble 
V:2 treble 
V:3 bass 
V:4 bass 
V:1
 [DF]2 [CA]2 [Dd]2 [Fd]2 | [Gd]3 [GB] [EA]4 | [FA]2 [FB]2 [EG]2 [EA]2 | %3
 [DF]2 ([FA][EG]) [DF]2 [CE]2 | [CF]2 [CF]2 [FB]3 [^DB] | [Ec]2 [F^d]2 (e2 =d2) | %6
 [Ec]2 BA [Dd]2 [DF]2 | [DE]2 (GF) [CE]2 D2 |] %8
V:2
 x8 | x8 | x8 | x8 | x8 | x4 E4 | x2 C2 x4 | x2 D2 x D2 x |] %8
V:3
 [D,A,]2 [E,G,]2 [F,A,]2 [D,A,]2 | [B,,D]3 [B,,D] [C,E]4 | [D,D]2 [^D,B,]2 [E,B,]2 [C,A,]2 | %3
 [D,A,]2 [G,,B,]2 [A,,A,]2 [A,,A,]2 | [F,^A,]2 [E,A,]2 [^D,B,]3 B, | B,2 [A,B,]2 [^G,B,]4 | %6
 A,2 [G,A,]2 [F,A,]2 B,2 | [G,B,]2 (B,A,) [A,,G,]2 [D,F,]2 |] %8
V:4
 x8 | x8 | x8 | x8 | x7 B, | B,2 x6 | A,2 x2 B,2 x2 | x2 G,,2 x4 |] %8

